icons/currency-dollar.svg

<svg xmlns="http://www.w3.org/2000/svg" width="24" height="24" viewBox="0 0 24 24">
  <path d="M12,1 C18.0751322,1 23,5.92486775 23,12 C23,18.0751322 18.0751322,23 12,23 C5.92486775,23 1,18.0751322 1,12 C1,5.92486775 5.92486775,1 12,1 Z M12,5 C11.4477153,5 11,5.44771525 11,6 L11,6 L11.0001524,6.56722369 C9.23609055,6.81704848 8,7.76798511 8,9.5 C8,11.207538 8.85886794,11.9357387 10.9987351,12.711906 L10.9987351,12.711906 L11.0008687,15.3581792 C10.5280331,15.2247416 10.0469449,14.9961128 9.5547002,14.6679497 C9.09517151,14.3615972 8.47430216,14.4857711 8.16794971,14.9452998 C7.86159725,15.4048285 7.98577112,16.0256978 8.4452998,16.3320503 C9.2818026,16.8897188 10.135406,17.2515 11.0005993,17.4091518 L11.0005993,17.4091518 L11,18 L11.0067277,18.1166211 C11.0644928,18.6139598 11.4871642,19 12,19 C12.5522847,19 13,18.5522847 13,18 L13,18 L13.0008399,17.4326357 C14.764373,17.1825949 16,16.2316901 16,14.5 C16,12.8015743 15.1058166,12.0514602 13.0016615,11.2877987 L13.0016615,11.2877987 L13.000131,8.64210302 C13.472645,8.77558069 13.953402,9.00411842 14.4452998,9.33205029 C14.9048285,9.63840275 15.5256978,9.51422888 15.8320503,9.0547002 C16.1384028,8.59517151 16.0142289,7.97430216 15.5547002,7.66794971 C14.7185199,7.11049616 13.8652521,6.74877894 13.0004013,6.59103063 L13.0004013,6.59103063 L13,6 L12.9932723,5.88337887 C12.9355072,5.38604019 12.5128358,5 12,5 Z M13.0015252,13.4398595 C13.752359,13.7782803 14,14.0733476 14,14.5 C14,14.93884 13.6630371,15.2556988 13.0018777,15.4046258 L13.0018777,15.4046258 Z M10.9991381,8.5951456 L10.9985168,10.5616675 C10.2348272,10.2211979 10,9.93359867 10,9.5 C10,9.06093535 10.337308,8.74397673 10.9991381,8.5951456 L10.9991381,8.5951456 Z"/>
</svg>

<svg xmlns="http://www.w3.org/2000/svg" viewBox="0 0 24 24">
  <path d="M12 1a11 11 0 1 1 0 22 11 11 0 0 1 0-22zm0 4a1 1 0 0 0-1 1v.57c-1.76.25-3 1.2-3 2.93 0 1.7.86 2.44 3 3.21v2.65a5.13 5.13 0 0 1-1.45-.7 1 1 0 1 0-1.1 1.67c.83.56 1.69.92 2.55 1.08v.71a1 1 0 0 0 2-.12v-.57c1.76-.25 3-1.2 3-2.93 0-1.7-.9-2.45-3-3.21V8.64c.47.14.95.36 1.45.7a1 1 0 0 0 1.1-1.67A6.81 6.81 0 0 0 13 6.59v-.71A1 1 0 0 0 12 5zm1 8.44c.75.34 1 .63 1 1.06 0 .44-.34.76-1 .9zM11 8.6v1.96c-.77-.34-1-.63-1-1.06 0-.44.34-.76 1-.9z"/>
</svg>
